X: 161
T: Tennessee Politics
B: canberra pickers and fiddlers
B: old time tunes update
B: tunes
M:2/2
L:1/16
Q: 1/2=180
K:D
V:1 
A2c2d2e2d2A2B4-|B2e2f4A4B4-|B2c2d4d2c2B2c2|d2e2f6g2fg3/2-g3/16fe3/8-|
e4d4A2d2B2c2|d2e2f4A4d4|f4f2a4b2a4|f2b2a2f2d2f2e4:|
F2G2A2F2B2F2A2F2|D4A6B2A4|A2B4c2d2e2d4-|d2c2B2c2d2e2d4|
c2B2A2F2B2F2A2F2|D4A6B2A4|f2g2a6b2a4|f2b2a2f2d2f2e4:|

% abcbook-tune_id 67a7d9ecc13e82596725fc07
% abcbook-tune_composer_id 
% abcbook-link-0 https://www.youtube.com/watch?v=-gipUkazIaE
% abcbook-link-title-0 Tennessee Politics
% abcbook-boost 0
% abcbook-difficulty 0
% abcbook-tags old time tunes
% abcbook-tablature 
% abcbook-transpose -7
% abcbook-tuning ADAE
% abcbook-lastupdated 1739242918632
% abcbook-src-url 
% abcbook-soundfonts 
% abcbook-repeats 1
%%MIDI transpose -7


